;FLAVOR:Marlin
;TIME:17412
;Filament used: 13.0664m
;Layer height: 0.2
;MINX:2.209
;MINY:24.255
;MINZ:0.2
;MAXX:227.622
;MAXY:194.356
;MAXZ:5.2
;TARGET_MACHINE.NAME:Creality Ender-3
;Generated with Cura_SteamEngine 5.5.0
M140 S50
M105
M190 S50
M104 S200
M105
M109 S200
M82 ;absolute extrusion mode
; Ender 3 Custom Start G-code
G92 E0 ; Reset Extruder
G28 ; Home all axes
G1 Z2.0 F3000 ; Move Z Axis up little to prevent scratching of Heat Bed
G1 X0.1 Y20 Z0.3 F5000.0 ; Move to start position
G1 X0.1 Y200.0 Z0.3 F1500.0 E15 ; Draw the first line
G1 X0.4 Y200.0 Z0.3 F5000.0 ; Move to side a little
G1 X0.4 Y20 Z0.3 F1500.0 E30 ; Draw the second line
G92 E0 ; Reset Extruder
G1 Z2.0 F3000 ; Move Z Axis up little to prevent scratching of Heat Bed
G1 X5 Y20 Z0.3 F5000.0 ; Move over to prevent blob squish
G92 E0
G92 E0
G1 F2700 E-5
;LAYER_COUNT:26
;LAYER:0
M107
G0 F6000 X20.974 Y27.168 Z0.2
;TYPE:SKIRT
G1 F2700 E0
G1 F1200 X22.09 Y26.436 E0.04439
G1 X22.866 Y25.996 E0.07406
G1 X23.738 Y25.555 E0.10656
G1 X24.714 Y25.168 E0.14148
G1 X25.381 Y24.942 E0.16491
G1 X26.275 Y24.681 E0.19588
G1 X26.883 Y24.549 E0.21657
G1 X27.598 Y24.424 E0.24072
G1 X28.012 Y24.365 E0.25463
G1 X28.969 Y24.271 E0.28661
G1 X29.593 Y24.255 E0.30737
G1 X30.295 Y24.257 E0.33072
G1 X31.231 Y24.303 E0.36189
G1 X32.122 Y24.422 E0.39179
G1 X32.813 Y24.544 E0.41512
G1 X33.575 Y24.706 E0.44103
G1 X34.469 Y24.933 E0.47171
G1 X44.27 Y27.56 E0.8092
G1 X46.809 Y28.201 E0.8963
G1 X49.256 Y28.747 E0.97969
G1 X51.735 Y29.227 E1.06367
G1 X54.216 Y29.634 E1.14729
G1 X56.69 Y29.969 E1.23033
G1 X59.183 Y30.234 E1.31371
G1 X61.691 Y30.432 E1.39739
G1 X64.244 Y30.558 E1.48241
G1 X66.756 Y30.613 E1.56598
G1 X69.25 Y30.596 E1.64893
G1 X71.781 Y30.507 E1.73316
G1 X74.314 Y30.347 E1.81758
G1 X76.775 Y30.121 E1.89977
G1 X79.288 Y29.818 E1.98396
G1 X81.799 Y29.443 E2.06841
G1 X84.215 Y29.011 E2.15004
G1 X87.418 Y28.342 E2.25887
G1 X88.51 Y28.16 E2.29569
G1 X89.462 Y28.052 E2.32756
G1 X89.956 Y28.031 E2.344
G1 X90.648 Y28.023 E2.36702
G1 X91.096 Y28.032 E2.38192
G1 X92.058 Y28.094 E2.41398
G1 X92.773 Y28.194 E2.438
G1 X93.474 Y28.318 E2.46167
G1 X94.231 Y28.479 E2.48741
G1 X94.996 Y28.673 E2.51366
G1 X124.744 Y36.635 E3.53791
G1 X125.452 Y36.836 E3.56239
G1 X126.315 Y37.122 E3.59263
G1 X126.855 Y37.327 E3.61184
G1 X127.547 Y37.61 E3.63671
G1 X128.436 Y38.028 E3.66938
G1 X129.424 Y38.617 E3.70764
G1 X130.14 Y39.106 E3.73648
G1 X130.529 Y39.388 E3.75246
G1 X131.195 Y39.911 E3.78062
G1 X132.128 Y40.706 E3.82139
G1 X134.198 Y42.419 E3.91076
G1 X136.182 Y43.969 E3.9945
G1 X138.163 Y45.428 E4.07633
G1 X140.598 Y47.108 E4.17472
G1 X142.657 Y48.439 E4.25626
G1 X144.851 Y49.771 E4.34163
G1 X147.017 Y51.003 E4.42451
G1 X149.262 Y52.198 E4.5091
G1 X151.501 Y53.31 E4.59225
G1 X153.802 Y54.37 E4.67651
G1 X156.122 Y55.362 E4.76043
G1 X158.394 Y56.26 E4.84169
G1 X160.035 Y56.847 E4.89965
G1 X161.813 Y57.503 E4.96269
G1 X162.208 Y57.659 E4.97681
G1 X163.416 Y58.226 E5.0212
G1 X164.031 Y58.572 E5.04467
G1 X164.411 Y58.802 E5.05944
G1 X165.214 Y59.337 E5.09153
G1 X165.756 Y59.76 E5.1144
G1 X166.314 Y60.225 E5.13856
G1 X166.913 Y60.764 E5.16536
G1 X167.479 Y61.314 E5.19161
G1 X189.214 Y83.043 E6.21382
G1 X189.766 Y83.611 E6.24016
G1 X190.399 Y84.324 E6.27187
G1 X191.175 Y85.303 E6.31342
G1 X191.735 Y86.108 E6.34604
G1 X192.305 Y87.119 E6.38464
G1 X192.51 Y87.536 E6.40009
G1 X192.851 Y88.277 E6.42722
G1 X193.302 Y89.445 E6.46887
G1 X193.768 Y90.901 E6.51971
G1 X194.585 Y93.299 E6.60397
G1 X195.468 Y95.668 E6.68806
G1 X196.422 Y98.026 E6.77267
G1 X197.42 Y100.299 E6.85523
G1 X198.492 Y102.572 E6.93882
G1 X199.649 Y104.849 E7.02377
G1 X200.834 Y107.031 E7.10635
G1 X202.119 Y109.24 E7.19135
G1 X203.419 Y111.342 E7.27355
G1 X204.808 Y113.448 E7.35746
G1 X206.268 Y115.532 E7.4421
G1 X207.759 Y117.537 E7.5252
G1 X209.331 Y119.531 E7.60965
G1 X210.92 Y121.434 E7.69211
G1 X212.612 Y123.346 E7.77703
G1 X214.341 Y125.197 E7.86127
G1 X215.499 Y126.374 E7.91619
G1 X222.768 Y133.644 E8.25813
G1 X223.364 Y134.255 E8.28651
G1 X223.974 Y134.939 E8.317
G1 X224.499 Y135.588 E8.34476
G1 X224.768 Y135.939 E8.35947
G1 X225.33 Y136.745 E8.39215
G1 X225.887 Y137.736 E8.42996
G1 X226.436 Y138.892 E8.47253
G1 X226.799 Y139.798 E8.50499
G1 X227.088 Y140.761 E8.53843
G1 X227.278 Y141.555 E8.56558
G1 X227.392 Y142.112 E8.58449
G1 X227.544 Y143.073 E8.61685
G1 X227.609 Y143.982 E8.64716
G1 X227.622 Y144.737 E8.67228
G1 X227.613 Y145.343 E8.69244
G1 X227.556 Y146.317 E8.72489
G1 X227.413 Y147.279 E8.75723
G1 X227.279 Y147.959 E8.78029
G1 X227.067 Y148.837 E8.81033
G1 X226.881 Y149.427 E8.8309
G1 X226.645 Y150.079 E8.85397
G1 X226.476 Y150.506 E8.86924
G1 X226.082 Y151.385 E8.90128
G1 X225.767 Y151.969 E8.92335
G1 X225.419 Y152.568 E8.94639
G1 X224.883 Y153.399 E8.97928
G1 X224.351 Y154.09 E9.00828
G1 X223.901 Y154.626 E9.03156
G1 X223.384 Y155.199 E9.05723
G1 X222.847 Y155.755 E9.08294
G1 X188.997 Y189.613 E10.67533
G1 X188.513 Y190.083 E10.69777
G1 X187.797 Y190.717 E10.72958
G1 X187.137 Y191.25 E10.75779
G1 X186.785 Y191.519 E10.77253
G1 X185.979 Y192.079 E10.80517
G1 X184.985 Y192.636 E10.84307
G1 X184.27 Y192.983 E10.8695
G1 X183.851 Y193.173 E10.8848
G1 X182.944 Y193.535 E10.91728
G1 X181.986 Y193.822 E10.95055
G1 X181.191 Y194.013 E10.97774
G1 X180.646 Y194.125 E10.99625
G1 X179.685 Y194.277 E11.02861
G1 X178.768 Y194.343 E11.05918
G1 X178.014 Y194.356 E11.08427
G1 X177.404 Y194.347 E11.10456
G1 X176.432 Y194.29 E11.13694
G1 X175.465 Y194.147 E11.16945
G1 X174.791 Y194.014 E11.1923
G1 X173.881 Y193.793 E11.22345
G1 X173.051 Y193.516 E11.25255
G1 X172.381 Y193.264 E11.27636
G1 X171.551 Y192.908 E11.3064
G1 X170.996 Y192.623 E11.32715
G1 X170.419 Y192.297 E11.34919
G1 X169.768 Y191.901 E11.37454
G1 X168.299 Y190.956 E11.43263
G1 X166.169 Y189.643 E11.51585
G1 X163.977 Y188.378 E11.60003
G1 X161.738 Y187.166 E11.68471
G1 X159.548 Y186.061 E11.7663
G1 X157.093 Y184.907 E11.85652
G1 X156.18 Y184.493 E11.88986
G1 X155.234 Y184.005 E11.92527
G1 X154.607 Y183.639 E11.94941
G1 X153.963 Y183.234 E11.97472
G1 X153.17 Y182.694 E12.00663
G1 X150.967 Y181.24 E12.09442
G1 X148.812 Y179.904 E12.17875
G1 X146.664 Y178.656 E12.26138
G1 X144.45 Y177.452 E12.3452
G1 X142.167 Y176.292 E12.43037
G1 X141.366 Y175.911 E12.45987
G1 X140.619 Y175.541 E12.4876
G1 X140.152 Y175.295 E12.50516
G1 X139.556 Y174.955 E12.52798
G1 X139.19 Y174.733 E12.54222
G1 X138.114 Y173.985 E12.5858
G1 X135.62 Y172.009 E12.69163
G1 X133.634 Y170.528 E12.77403
G1 X131.583 Y169.088 E12.85738
G1 X129.447 Y167.678 E12.94251
G1 X127.313 Y166.353 E13.02605
G1 X125.146 Y165.093 E13.10943
G1 X122.941 Y163.891 E13.19295
G1 X120.686 Y162.743 E13.27712
G1 X118.437 Y161.678 E13.35988
G1 X115.759 Y160.507 E13.4571
G1 X114.981 Y160.178 E13.48519
G1 X114.317 Y159.87 E13.50953
G1 X113.23 Y159.309 E13.55022
G1 X112.616 Y158.966 E13.57361
G1 X67.503 Y132.919 E15.30622
G1 X66.589 Y132.362 E15.34182
G1 X66.03 Y131.995 E15.36406
G1 X65.236 Y131.435 E15.39637
G1 X64.371 Y130.794 E15.43218
G1 X63.651 Y130.246 E15.46228
G1 X61.595 Y128.769 E15.54648
G1 X59.511 Y127.361 E15.63013
G1 X57.384 Y126.008 E15.71397
G1 X55.232 Y124.724 E15.79732
G1 X53.033 Y123.494 E15.88112
G1 X50.785 Y122.32 E15.96547
G1 X48.544 Y121.229 E16.04837
G1 X46.246 Y120.189 E16.13227
G1 X43.903 Y119.207 E16.21676
G1 X42.027 Y118.475 E16.28374
G1 X41.439 Y118.231 E16.30491
G1 X40.552 Y117.813 E16.33753
G1 X39.556 Y117.22 E16.37608
G1 X36.794 Y115.368 E16.48669
G1 X34.645 Y114.011 E16.57122
G1 X32.524 Y112.756 E16.65319
G1 X30.272 Y111.508 E16.73882
G1 X28.068 Y110.364 E16.82142
G1 X25.62 Y109.174 E16.91195
G1 X24.826 Y108.743 E16.942
G1 X24.334 Y108.432 E16.96135
G1 X23.893 Y108.135 E16.97904
G1 X22.763 Y107.335 E17.02509
G1 X20.625 Y105.852 E17.11163
G1 X18.506 Y104.47 E17.19577
G1 X16.346 Y103.147 E17.28002
G1 X14.168 Y101.897 E17.36354
G1 X11.973 Y100.717 E17.44643
G1 X11.182 Y100.321 E17.47585
G1 X10.19 Y99.803 E17.51307
G1 X9.174 Y99.2 E17.55237
G1 X8.539 Y98.768 E17.57791
G1 X8.143 Y98.485 E17.5941
G1 X7.404 Y97.903 E17.62539
G1 X6.637 Y97.178 E17.66049
G1 X6.131 Y96.642 E17.68501
G1 X5.775 Y96.244 E17.70277
G1 X5.183 Y95.521 E17.73385
G1 X4.719 Y94.853 E17.7609
G1 X4.29 Y94.153 E17.78821
G1 X3.936 Y93.525 E17.81218
G1 X3.497 Y92.652 E17.84468
G1 X3.113 Y91.676 E17.87957
G1 X2.89 Y91.014 E17.9028
G1 X2.622 Y90.082 E17.93506
G1 X2.467 Y89.318 E17.96099
G1 X2.357 Y88.645 E17.98367
G1 X2.242 Y87.69 E18.01566
G1 X2.215 Y87.086 E18.03577
G1 X2.209 Y86.343 E18.06048
G1 X2.219 Y85.926 E18.07435
G1 X2.284 Y84.966 E18.10636
G1 X2.38 Y84.294 E18.12894
G1 X2.501 Y83.61 E18.15204
G1 X2.662 Y82.852 E18.17781
G1 X2.854 Y82.093 E18.20385
G1 X15.251 Y35.847 E19.79631
G1 X15.44 Y35.183 E19.81927
G1 X15.713 Y34.359 E19.84814
G1 X16.018 Y33.565 E19.87643
G1 X16.191 Y33.146 E19.89151
G1 X16.571 Y32.326 E19.92157
G1 X17.199 Y31.26 E19.96272
G1 X17.928 Y30.203 E20.00542
G1 X18.508 Y29.463 E20.0367
G1 X19.215 Y28.711 E20.07102
G1 X19.777 Y28.177 E20.09681
G1 X20.24 Y27.764 E20.11745
G1 X20.974 Y27.168 E20.14889
G0 F6000 X21.226 Y27.479
G1 F1200 X22.309 Y26.771 E20.19193
G1 X23.047 Y26.353 E20.22014
G1 X23.886 Y25.927 E20.25143
G1 X24.843 Y25.547 E20.28568
G1 X25.493 Y25.326 E20.30852
G1 X26.387 Y25.065 E20.33949
G1 X26.952 Y24.943 E20.35872
G1 X27.655 Y24.82 E20.38245
G1 X28.051 Y24.763 E20.39576
G1 X28.979 Y24.671 E20.42678
G1 X29.592 Y24.655 E20.44717
G1 X30.276 Y24.657 E20.46992
G1 X31.178 Y24.7 E20.49996
G1 X32.053 Y24.816 E20.52931
G1 X32.73 Y24.935 E20.55218
G1 X33.477 Y25.094 E20.57758
G1 X34.365 Y25.319 E20.60805
G1 X44.172 Y27.948 E20.94575
G1 X46.711 Y28.589 E21.03284
G1 X49.18 Y29.14 E21.11698
G1 X51.666 Y29.621 E21.2012
G1 X54.151 Y30.029 E21.28496
G1 X56.648 Y30.367 E21.36877
G1 X59.146 Y30.633 E21.45232
G1 X61.671 Y30.832 E21.53656
G1 X64.224 Y30.958 E21.62158
G1 X66.75 Y31.013 E21.70561
G1 X69.264 Y30.996 E21.78923
G1 X71.795 Y30.907 E21.87347
G1 X74.343 Y30.746 E21.95838
G1 X76.823 Y30.518 E22.04121
G1 X79.347 Y30.214 E22.12577
G1 X81.858 Y29.839 E22.21021
G1 X84.297 Y29.403 E22.29262
G1 X87.5 Y28.734 E22.40145
G1 X88.555 Y28.557 E22.43703
G1 X89.479 Y28.452 E22.46796
G1 X89.961 Y28.431 E22.48401
G1 X90.641 Y28.423 E22.50663
G1 X91.071 Y28.431 E22.52093
G1 X92.003 Y28.49 E22.55199
G1 X92.704 Y28.588 E22.57553
G1 X93.391 Y28.709 E22.59873
G1 X94.133 Y28.867 E22.62397
G1 X94.893 Y29.059 E22.65004
G1 X124.635 Y37.02 E23.67409
G1 X125.326 Y37.216 E23.69797
G1 X126.173 Y37.496 E23.72765
G1 X126.704 Y37.697 E23.74653
G1 X127.377 Y37.972 E23.77071
G1 X128.231 Y38.372 E23.80208
G1 X129.219 Y38.961 E23.84033
G1 X129.906 Y39.43 E23.868
G1 X130.282 Y39.702 E23.88343
G1 X130.936 Y40.216 E23.9111
G1 X131.873 Y41.014 E23.95204
G1 X133.943 Y42.727 E24.0414
G1 X135.945 Y44.291 E24.1259
G1 X137.936 Y45.757 E24.20813
G1 X140.381 Y47.444 E24.30693
G1 X142.449 Y48.781 E24.38884
G1 X144.653 Y50.119 E24.4746
G1 X146.819 Y51.351 E24.55748
G1 X149.075 Y52.551 E24.64246
G1 X151.323 Y53.668 E24.72595
G1 X153.645 Y54.738 E24.81099
G1 X155.966 Y55.731 E24.89496
G1 X158.259 Y56.637 E24.97696
G1 X159.897 Y57.222 E25.03481
G1 X161.667 Y57.875 E25.09756
G1 X162.038 Y58.021 E25.11082
G1 X163.22 Y58.575 E25.15424
G1 X163.824 Y58.914 E25.17727
G1 X164.19 Y59.135 E25.19149
G1 X164.968 Y59.652 E25.22256
G1 X165.5 Y60.067 E25.245
G1 X166.046 Y60.522 E25.26864
G1 X166.634 Y61.051 E25.29495
G1 X167.196 Y61.597 E25.32101
G1 X188.927 Y83.322 E26.34303
G1 X189.467 Y83.877 E26.36878
G1 X190.086 Y84.573 E26.39976
G1 X190.847 Y85.532 E26.44048
G1 X191.387 Y86.305 E26.47184
G1 X191.946 Y87.296 E26.50969
G1 X192.147 Y87.704 E26.52481
G1 X192.478 Y88.421 E26.55108
G1 X192.921 Y89.567 E26.59195
G1 X193.389 Y91.03 E26.64303
G1 X194.21 Y93.439 E26.72768
G1 X195.097 Y95.818 E26.81213
G1 X196.051 Y98.176 E26.89673
G1 X197.058 Y100.47 E26.98006
G1 X198.135 Y102.753 E27.06402
G1 X199.297 Y105.04 E27.14934
G1 X200.482 Y107.222 E27.23192
G1 X201.773 Y109.441 E27.31731
G1 X203.085 Y111.562 E27.40026
G1 X204.48 Y113.678 E27.48456
G1 X205.94 Y115.762 E27.56919
G1 X207.445 Y117.785 E27.65305
G1 X209.017 Y119.779 E27.7375
G1 X210.62 Y121.699 E27.82069
G1 X212.312 Y123.611 E27.90561
G1 X214.056 Y125.477 E27.99056
G1 X215.216 Y126.657 E28.0456
G1 X222.482 Y133.923 E28.38737
G1 X223.066 Y134.522 E28.41519
G1 X223.663 Y135.19 E28.44499
G1 X224.182 Y135.832 E28.47245
G1 X224.44 Y136.168 E28.48654
G1 X224.981 Y136.941 E28.51792
G1 X225.538 Y137.932 E28.55573
G1 X226.065 Y139.041 E28.59657
G1 X226.416 Y139.913 E28.62783
G1 X226.699 Y140.854 E28.66051
G1 X226.886 Y141.636 E28.68726
G1 X226.997 Y142.175 E28.70556
G1 X227.145 Y143.102 E28.73678
G1 X227.209 Y143.989 E28.76636
G1 X227.222 Y144.732 E28.79108
G1 X227.214 Y145.32 E28.81064
G1 X227.16 Y146.258 E28.84189
G1 X227.02 Y147.202 E28.87363
G1 X226.89 Y147.865 E28.8961
G1 X226.678 Y148.743 E28.92614
G1 X226.505 Y149.291 E28.94525
G1 X226.273 Y149.932 E28.96793
G1 X226.111 Y150.343 E28.98262
G1 X225.73 Y151.195 E29.01366
G1 X225.421 Y151.768 E29.03531
G1 X225.073 Y152.367 E29.05836
G1 X224.566 Y153.155 E29.08952
G1 X224.044 Y153.833 E29.11798
G1 X223.604 Y154.358 E29.14076
G1 X223.097 Y154.921 E29.16596
G1 X222.564 Y155.472 E29.19146
G1 X188.718 Y189.326 E30.78366
G1 X188.234 Y189.796 E30.8061
G1 X187.546 Y190.406 E30.83668
G1 X186.894 Y190.932 E30.86454
G1 X186.556 Y191.191 E30.87871
G1 X185.783 Y191.73 E30.91005
G1 X184.789 Y192.287 E30.94795
G1 X184.104 Y192.619 E30.97327
G1 X183.702 Y192.802 E30.98796
G1 X182.829 Y193.152 E31.01924
G1 X181.893 Y193.433 E31.05174
G1 X181.11 Y193.621 E31.07853
G1 X180.583 Y193.73 E31.09643
G1 X179.656 Y193.878 E31.12765
G1 X178.761 Y193.943 E31.15749
G1 X178.019 Y193.956 E31.18218
G1 X177.427 Y193.948 E31.20187
G1 X176.49 Y193.894 E31.23309
G1 X175.542 Y193.754 E31.26496
G1 X174.885 Y193.625 E31.28723
G1 X174.007 Y193.413 E31.31727
G1 X173.192 Y193.142 E31.34584
G1 X172.539 Y192.896 E31.36904
G1 X171.709 Y192.54 E31.39908
G1 X171.193 Y192.275 E31.41838
G1 X170.627 Y191.955 E31.44
G1 X169.984 Y191.564 E31.46503
G1 X168.515 Y190.62 E31.52311
G1 X166.379 Y189.303 E31.60657
G1 X164.167 Y188.026 E31.69152
G1 X161.928 Y186.814 E31.7762
G1 X159.718 Y185.699 E31.85853
G1 X157.263 Y184.545 E31.94876
G1 X156.363 Y184.137 E31.98162
G1 X155.435 Y183.659 E32.01634
G1 X154.82 Y183.301 E32.04001
G1 X154.188 Y182.903 E32.06485
G1 X153.395 Y182.363 E32.09676
G1 X151.178 Y180.9 E32.18511
G1 X149.023 Y179.564 E32.26944
G1 X146.865 Y178.31 E32.35245
G1 X144.631 Y177.095 E32.43704
G1 X142.348 Y175.935 E32.52221
G1 X141.543 Y175.552 E32.55186
G1 X140.805 Y175.187 E32.57924
G1 X140.35 Y174.948 E32.59634
G1 X139.763 Y174.613 E32.61882
G1 X139.418 Y174.404 E32.63223
G1 X138.362 Y173.671 E32.67499
G1 X135.868 Y171.695 E32.78082
G1 X133.873 Y170.207 E32.8636
G1 X131.803 Y168.754 E32.94771
G1 X129.658 Y167.338 E33.0332
G1 X127.524 Y166.013 E33.11674
G1 X125.347 Y164.747 E33.20051
G1 X123.132 Y163.54 E33.2844
G1 X120.857 Y162.382 E33.36931
G1 X118.597 Y161.311 E33.45249
G1 X115.919 Y160.141 E33.54969
G1 X115.149 Y159.815 E33.5775
G1 X114.5 Y159.514 E33.6013
G1 X113.425 Y158.96 E33.64152
G1 X112.816 Y158.62 E33.66472
G1 X67.711 Y132.577 E35.39702
G1 X66.808 Y132.027 E35.43219
G1 X66.26 Y131.668 E35.45398
G1 X65.474 Y131.114 E35.48596
G1 X64.613 Y130.476 E35.52161
G1 X63.884 Y129.921 E35.55208
G1 X61.828 Y128.444 E35.63628
G1 X59.726 Y127.023 E35.72067
G1 X57.599 Y125.67 E35.80451
G1 X55.437 Y124.38 E35.88825
G1 X53.218 Y123.139 E35.97281
G1 X50.97 Y121.965 E36.05716
G1 X48.719 Y120.869 E36.14043
G1 X46.401 Y119.82 E36.22506
G1 X44.058 Y118.838 E36.30955
G1 X42.18 Y118.105 E36.37661
G1 X41.609 Y117.869 E36.39716
G1 X40.756 Y117.469 E36.42849
G1 X39.779 Y116.888 E36.4663
G1 X37.008 Y115.03 E36.57726
G1 X34.859 Y113.673 E36.6618
G1 X32.718 Y112.406 E36.74454
G1 X30.466 Y111.158 E36.83017
G1 X28.243 Y110.004 E36.91348
G1 X25.811 Y108.822 E37.00342
G1 X25.017 Y108.391 E37.03346
G1 X24.557 Y108.1 E37.05157
G1 X24.124 Y107.809 E37.06892
G1 X22.991 Y107.006 E37.11511
G1 X20.853 Y105.523 E37.20165
G1 X18.725 Y104.135 E37.28615
G1 X16.555 Y102.806 E37.37079
G1 X14.367 Y101.55 E37.4547
G1 X12.152 Y100.359 E37.53835
